public/svgs/duotone/bars-filter.svg

<svg xmlns="http://www.w3.org/2000/svg" viewBox="0 0 448 512"><!-- Font Awesome Pro 6.0.0-alpha2 by @fontawesome - https://fontawesome.com License - https://fontawesome.com/license (Commercial License) --><defs><style>.fa-secondary{opacity:.4}</style></defs><path d="M352 224H96C78.327 224 64 238.327 64 256V256C64 273.673 78.327 288 96 288H352C369.673 288 384 273.673 384 256V256C384 238.327 369.673 224 352 224Z" class="fa-secondary"/><path d="M256 384H192C174.327 384 160 398.327 160 416V416C160 433.673 174.327 448 192 448H256C273.673 448 288 433.673 288 416V416C288 398.327 273.673 384 256 384ZM416 64H32C14.327 64 0 78.327 0 96V96C0 113.673 14.327 128 32 128H416C433.673 128 448 113.673 448 96V96C448 78.327 433.673 64 416 64Z" class="fa-primary"/></svg>

<svg xmlns="http://www.w3.org/2000/svg" viewBox="0 0 448 512"><!--! Font Awesome Pro 6.5.1 by @fontawesome - https://fontawesome.com License - https://fontawesome.com/license (Commercial License) Copyright 2023 Fonticons, Inc. --><defs><style>.fa-secondary{opacity:.4}</style></defs><path class="fa-secondary" d="M64 256c0-17.7 14.3-32 32-32H352c17.7 0 32 14.3 32 32s-14.3 32-32 32H96c-17.7 0-32-14.3-32-32z"/><path class="fa-primary" d="M448 96c0-17.7-14.3-32-32-32H32C14.3 64 0 78.3 0 96s14.3 32 32 32H416c17.7 0 32-14.3 32-32zM288 416c0-17.7-14.3-32-32-32H192c-17.7 0-32 14.3-32 32s14.3 32 32 32h64c17.7 0 32-14.3 32-32z"/></svg>
